src/assets/images/wave-background-invert.svg

<svg width="3840" height="2160" xmlns="http://www.w3.org/2000/svg"><path fill="#fff" d="M0 0h3840v2160H0z"/><path d="M0 189l91.5 15.2c91.5 15.1 274.5 45.5 457.3 41.5 182.9-4 365.5-42.4 548.4-61.9 182.8-19.5 365.8-20.1 548.6-2.5 182.9 17.7 365.5 53.7 548.4 48.9 182.8-4.9 365.8-50.5 548.6-47.2 182.9 3.3 365.5 55.7 548.4 76.3 182.8 20.7 365.8 9.7 457.3 4.2l91.5-5.5V0H0z" fill="#18e1fd"/><path d="M0 262l91.5-20c91.5-20 274.5-60 457.3-82 182.9-22 365.5-26 548.4-28.8 182.8-2.9 365.8-4.5 548.6 11.5 182.9 16 365.5 49.6 548.4 72C2377 237 2560 248 2742.8 252.3c182.9 4.4 365.5 2 548.4-1 182.8-3 365.8-6.6 457.3-8.5l91.5-1.8V0H0z" fill="#00c8ff"/><path d="M0 194l91.5-2.2c91.5-2.1 274.5-6.5 457.3-18.1 182.9-11.7 365.5-30.7 548.4-27.9 182.8 2.9 365.8 27.5 548.6 25.5 182.9-2 365.5-30.6 548.4-48.6 182.8-18 365.8-25.4 548.6-10 182.9 15.3 365.5 53.3 548.4 70 182.8 16.6 365.8 12 457.3 9.6l91.5-2.3V0H0z" fill="#00adff"/><path d="M0 69l91.5 6C183 81 366 93 548.8 97.5c182.9 4.5 365.5 1.5 548.4 4C1280 104 1463 112 1645.8 116c182.9 4 365.5 4 548.4.8 182.8-3.1 365.8-9.5 548.6-5.1 182.9 4.3 365.5 19.3 548.4 24.3 182.8 5 365.8 0 457.3-2.5l91.5-2.5V0H0z" fill="#008dff"/><path d="M0 100l91.5-8C183 84 366 68 548.8 64.7c182.9-3.4 365.5 6 548.4 11.6C1280 82 1463 84 1645.8 88.5c182.9 4.5 365.5 11.5 548.4 8.8 182.8-2.6 365.8-15 548.6-22.3 182.9-7.3 365.5-9.7 548.4-11.7 182.8-2 365.8-3.6 457.3-4.5l91.5-.8V0H0z" fill="#06f"/></svg>

<svg id="visual" viewBox="0 0 3840 2160" width="3840" height="2160" xmlns="http://www.w3.org/2000/svg" xmlns:xlink="http://www.w3.org/1999/xlink" version="1.1"><rect x="0" y="0" width="3840" height="2160" fill="#ffffff"></rect><path d="M0 189L91.5 204.2C183 219.3 366 249.7 548.8 245.7C731.7 241.7 914.3 203.3 1097.2 183.8C1280 164.3 1463 163.7 1645.8 181.3C1828.7 199 2011.3 235 2194.2 230.2C2377 225.3 2560 179.7 2742.8 183C2925.7 186.3 3108.3 238.7 3291.2 259.3C3474 280 3657 269 3748.5 263.5L3840 258L3840 0L3748.5 0C3657 0 3474 0 3291.2 0C3108.3 0 2925.7 0 2742.8 0C2560 0 2377 0 2194.2 0C2011.3 0 1828.7 0 1645.8 0C1463 0 1280 0 1097.2 0C914.3 0 731.7 0 548.8 0C366 0 183 0 91.5 0L0 0Z" fill="#18e1fd"></path><path d="M0 262L91.5 242C183 222 366 182 548.8 160C731.7 138 914.3 134 1097.2 131.2C1280 128.3 1463 126.7 1645.8 142.7C1828.7 158.7 2011.3 192.3 2194.2 214.7C2377 237 2560 248 2742.8 252.3C2925.7 256.7 3108.3 254.3 3291.2 251.3C3474 248.3 3657 244.7 3748.5 242.8L3840 241L3840 0L3748.5 0C3657 0 3474 0 3291.2 0C3108.3 0 2925.7 0 2742.8 0C2560 0 2377 0 2194.2 0C2011.3 0 1828.7 0 1645.8 0C1463 0 1280 0 1097.2 0C914.3 0 731.7 0 548.8 0C366 0 183 0 91.5 0L0 0Z" fill="#00c8ff"></path><path d="M0 194L91.5 191.8C183 189.7 366 185.3 548.8 173.7C731.7 162 914.3 143 1097.2 145.8C1280 148.7 1463 173.3 1645.8 171.3C1828.7 169.3 2011.3 140.7 2194.2 122.7C2377 104.7 2560 97.3 2742.8 112.7C2925.7 128 3108.3 166 3291.2 182.7C3474 199.3 3657 194.7 3748.5 192.3L3840 190L3840 0L3748.5 0C3657 0 3474 0 3291.2 0C3108.3 0 2925.7 0 2742.8 0C2560 0 2377 0 2194.2 0C2011.3 0 1828.7 0 1645.8 0C1463 0 1280 0 1097.2 0C914.3 0 731.7 0 548.8 0C366 0 183 0 91.5 0L0 0Z" fill="#00adff"></path><path d="M0 69L91.5 75C183 81 366 93 548.8 97.5C731.7 102 914.3 99 1097.2 101.5C1280 104 1463 112 1645.8 116C1828.7 120 2011.3 120 2194.2 116.8C2377 113.7 2560 107.3 2742.8 111.7C2925.7 116 3108.3 131 3291.2 136C3474 141 3657 136 3748.5 133.5L3840 131L3840 0L3748.5 0C3657 0 3474 0 3291.2 0C3108.3 0 2925.7 0 2742.8 0C2560 0 2377 0 2194.2 0C2011.3 0 1828.7 0 1645.8 0C1463 0 1280 0 1097.2 0C914.3 0 731.7 0 548.8 0C366 0 183 0 91.5 0L0 0Z" fill="#008dff"></path><path d="M0 100L91.5 92C183 84 366 68 548.8 64.7C731.7 61.3 914.3 70.7 1097.2 76.3C1280 82 1463 84 1645.8 88.5C1828.7 93 2011.3 100 2194.2 97.3C2377 94.7 2560 82.3 2742.8 75C2925.7 67.7 3108.3 65.3 3291.2 63.3C3474 61.3 3657 59.7 3748.5 58.8L3840 58L3840 0L3748.5 0C3657 0 3474 0 3291.2 0C3108.3 0 2925.7 0 2742.8 0C2560 0 2377 0 2194.2 0C2011.3 0 1828.7 0 1645.8 0C1463 0 1280 0 1097.2 0C914.3 0 731.7 0 548.8 0C366 0 183 0 91.5 0L0 0Z" fill="#0066ff"></path></svg>
